source/assets/images/logo-matriz.svg

<svg width="227" height="124" viewBox="0 0 227 124" fill="none" xmlns="http://www.w3.org/2000/svg">
<g clip-path="url(#clip0_16_2320)">
<path d="M162.628 1.56109C154.986 -1.64474 146.465 0.18119 140.391 6.34197L113.673 33.4383L86.9417 6.35591C80.8671 0.18119 72.3323 -1.65868 64.6908 1.56109C56.4584 5.01782 51.332 13.4506 51.332 23.542V68.4655C51.332 74.3615 55.3314 80.3271 60.8289 82.6409C62.1757 83.2124 64.0449 83.7281 66.2851 83.7281C70.202 83.7281 75.3146 82.1391 80.9908 76.3826L85.1001 72.215L89.1682 76.3408C97.4144 84.7317 103.365 90.7949 113.646 90.7949C113.659 90.7949 113.673 90.7949 113.701 90.7949C113.714 90.7949 113.728 90.7949 113.756 90.7949C123.94 90.7949 129.891 84.7317 138.137 76.3408L142.191 72.215L146.3 76.3826C151.977 82.1391 157.089 83.7281 161.006 83.7281C163.26 83.7281 165.115 83.1985 166.462 82.6409C171.974 80.3271 175.959 74.3615 175.959 68.4655V23.542C175.959 13.4366 170.847 5.01782 162.6 1.56109H162.628ZM63.4677 76.2153C60.1692 74.8215 58.1901 71.1835 58.1901 68.4516V23.542C58.1901 16.1964 61.5985 10.3702 67.3159 7.97277C72.4285 5.82625 77.9534 7.05283 82.0903 11.2483L108.822 38.3585L100.149 47.1537L73.1981 19.8204C72.2223 18.8308 70.7518 18.5242 69.4736 19.0678C68.1955 19.6114 67.3571 20.8658 67.3571 22.2736V52.7709C67.3571 53.6908 67.7144 54.5689 68.3604 55.224L80.2761 67.3087L76.1668 71.4762C71.6314 76.0759 67.1235 77.7625 63.4539 76.2292L63.4677 76.2153ZM153.117 51.3352L142.205 62.4023L132.007 52.06L153.117 30.6506V51.3352ZM113.659 60.8412L104.987 52.0461L113.659 43.2509L122.332 52.0461L113.659 60.8412ZM85.1138 62.4023L74.2014 51.3352V30.6506L95.3116 52.06L85.1138 62.4023ZM133.299 71.4344C125.438 79.4351 121.108 83.8536 113.659 83.8536C113.646 83.8536 113.632 83.8536 113.604 83.8536C113.591 83.8536 113.577 83.8536 113.549 83.8536C106.21 83.8536 101.881 79.449 94.0197 71.4484L89.9516 67.3087L100.149 56.9663L111.24 68.2147C111.914 68.8976 112.78 69.2322 113.659 69.2322C114.539 69.2322 115.405 68.8976 116.078 68.2147L127.169 56.9663L137.367 67.3087L133.299 71.4344ZM169.142 68.4655C169.142 71.1835 167.163 74.8354 163.865 76.2292C160.209 77.7764 155.687 76.0759 151.152 71.4762L147.043 67.3087L158.958 55.224C159.577 54.5968 159.962 53.7326 159.962 52.7709V22.2736C159.962 22.2736 159.962 22.1621 159.948 22.1063C159.948 21.9391 159.934 21.7579 159.893 21.5906C159.865 21.4652 159.824 21.3537 159.783 21.2282C159.755 21.1306 159.728 21.0331 159.7 20.9494C159.646 20.8101 159.563 20.6846 159.494 20.5452C159.453 20.4755 159.426 20.4058 159.384 20.3501C159.137 19.9598 158.807 19.6392 158.436 19.3883C158.367 19.3326 158.285 19.3047 158.202 19.2629C158.079 19.1932 157.969 19.1235 157.845 19.0678C157.735 19.0259 157.625 18.9981 157.515 18.9563C157.419 18.9284 157.323 18.8866 157.213 18.8587C156.773 18.7751 156.32 18.7751 155.866 18.8587C155.756 18.8866 155.66 18.9144 155.564 18.9563C155.454 18.9841 155.344 19.012 155.234 19.0678C155.11 19.1235 154.986 19.1932 154.876 19.2629C154.808 19.3047 154.725 19.3326 154.643 19.3883C154.45 19.5138 154.272 19.6671 154.107 19.8344L127.169 47.1537L118.497 38.3585L145.228 11.2483C149.379 7.05283 154.89 5.82625 160.003 7.97277C165.72 10.3702 169.129 16.1964 169.129 23.542V68.4655H169.142Z" fill="white"/>
<path d="M16.6023 102.436L16.7122 119.358H13.1389L13.0427 108.486L8.35612 113.503L3.66955 108.486L3.57334 119.358H0L0.109949 102.436H2.91365L8.35612 108.263L13.7986 102.436H16.6023Z" fill="white"/>
<path d="M34.661 119.358H30.8265L29.6583 116.04H24.7106L23.5012 119.358H19.7217L25.7689 102.436H28.6138L34.661 119.358ZM28.3664 112.43L27.1982 109.113L26.0025 112.43H28.3664Z" fill="white"/>
<path d="M49.6553 102.436V106.06H44.6114V119.371H41.038V106.06H35.9941V102.436H49.6553Z" fill="white"/>
<path d="M52.1982 102.408H57.9843C61.324 102.408 64.059 105.154 64.059 108.569C64.059 111.148 62.4922 113.35 60.2795 114.27L63.4543 119.358H59.3037L56.5275 114.758H55.7853V119.33H52.212V102.408H52.1982ZM55.7716 111.106H57.9843C59.3587 111.106 60.4856 109.963 60.4856 108.569C60.4856 107.175 59.3587 106.032 57.9843 106.032H55.7716V111.092V111.106Z" fill="white"/>
<path d="M70.9855 119.358H67.4121V102.436H70.9855V119.358Z" fill="white"/>
<path d="M87.1342 105.238L79.7401 115.748H86.9005V119.371H74.5312V116.598L81.9253 106.06H74.5312V102.436H87.1342V105.224V105.238Z" fill="white"/>
<path d="M96.123 102.436H108.52V106.06H99.6964V109.085H104.946V112.709H99.6964V115.734H108.52V119.358H96.123V102.436Z" fill="white"/>
<path d="M116.999 119.358H111.378V102.436H116.999C121.603 102.436 125.328 106.241 125.328 110.911C125.328 115.58 121.589 119.358 116.999 119.358ZM114.938 115.748H116.985C119.624 115.748 121.741 113.573 121.741 110.925C121.741 108.277 119.61 106.074 116.985 106.074H114.938V115.761V115.748Z" fill="white"/>
<path d="M136.419 102.436H139.993V112.57C139.993 116.305 137.01 119.358 133.3 119.358C129.589 119.358 126.606 116.305 126.606 112.57V102.436H130.18V112.57C130.18 114.326 131.582 115.748 133.313 115.748C135.045 115.748 136.447 114.326 136.447 112.57V102.436H136.419Z" fill="white"/>
<path d="M155.509 112.848L158.107 115.483L156.801 116.807C155.193 118.466 153.049 119.385 150.726 119.358C146.012 119.358 142.164 115.455 142.164 110.674C142.164 105.893 146.012 101.962 150.726 101.962C153.008 101.962 155.207 102.882 156.801 104.513L158.107 105.809L155.509 108.444L154.203 107.147C153.269 106.172 152.032 105.698 150.726 105.684C148.046 105.684 145.82 107.928 145.82 110.674C145.82 113.42 148.033 115.65 150.726 115.65C152.059 115.65 153.269 115.134 154.203 114.186L155.509 112.862V112.848Z" fill="white"/>
<path d="M174.557 119.358H170.723L169.555 116.04H164.607L163.398 119.358H159.618L165.665 102.436H168.51L174.557 119.358ZM168.249 112.43L167.081 109.113L165.885 112.43H168.249Z" fill="white"/>
<path d="M189.236 112.848L191.833 115.483L190.528 116.807C188.92 118.466 186.776 119.385 184.453 119.358C179.739 119.358 175.891 115.455 175.891 110.674C175.891 105.893 179.739 101.962 184.453 101.962C186.734 101.962 188.933 102.882 190.528 104.513L191.833 105.809L189.236 108.444L187.93 107.147C186.995 106.172 185.759 105.698 184.453 105.684C181.773 105.684 179.546 107.928 179.546 110.674C179.546 113.42 181.759 115.65 184.453 115.65C185.786 115.65 186.995 115.134 187.93 114.186L189.236 112.862V112.848Z" fill="white"/>
<path d="M208.284 119.358H204.45L203.281 116.04H198.334L197.124 119.358H193.345L199.392 102.436H202.237L208.284 119.358ZM201.976 112.43L200.808 109.113L199.612 112.43H201.976Z" fill="white"/>
<path d="M226.33 110.674C226.33 115.455 222.454 119.358 217.713 119.358C212.971 119.358 209.15 115.455 209.15 110.674C209.15 105.893 212.999 101.935 217.713 101.935C222.427 101.935 226.33 105.865 226.33 110.674ZM222.66 110.674C222.66 107.9 220.448 105.656 217.713 105.656C214.978 105.656 212.806 107.9 212.806 110.674C212.806 113.448 215.019 115.65 217.713 115.65C220.406 115.65 222.66 113.406 222.66 110.674Z" fill="white"/>
<path d="M203.983 100.415H198.06V98.1433H203.983V100.415Z" fill="white"/>
<path d="M187.738 123.469H181.814V121.197H187.738V123.469Z" fill="white"/>
</g>
<defs>
<clipPath id="clip0_16_2320">
<rect width="226.33" height="123.453" fill="white"/>
</clipPath>
</defs>
</svg>

<svg xmlns="http://www.w3.org/2000/svg" width="227" height="124" fill="none" viewBox="0 0 227 124"><g fill="#fff" clip-path="url(#a)"><path d="M162.628 1.561c-7.642-3.206-16.163-1.38-22.237 4.781l-26.718 27.096L86.942 6.356C80.867.18 72.332-1.66 64.69 1.56c-8.233 3.457-13.359 11.89-13.359 21.981v44.924c0 5.896 4 11.861 9.497 14.175a14 14 0 0 0 5.456 1.087c3.917 0 9.03-1.589 14.706-7.345l4.11-4.168 4.067 4.126c8.246 8.39 14.197 14.454 24.478 14.454h.11c10.184 0 16.135-6.063 24.381-14.454l4.054-4.126 4.109 4.168c5.677 5.756 10.789 7.345 14.706 7.345 2.254 0 4.109-.53 5.456-1.087 5.512-2.314 9.497-8.28 9.497-14.175V23.542c0-10.105-5.112-18.524-13.359-21.98zm-99.16 74.654c-3.299-1.394-5.278-5.032-5.278-7.763v-44.91c0-7.346 3.409-13.172 9.126-15.57 5.112-2.146 10.637-.92 14.774 3.276l26.732 27.11-8.673 8.796-26.95-27.334a3.37 3.37 0 0 0-3.725-.752 3.48 3.48 0 0 0-2.117 3.206V52.77c0 .92.357 1.798 1.003 2.453l11.916 12.085-4.11 4.167c-4.535 4.6-9.042 6.287-12.712 4.753zm89.649-24.88-10.912 11.067-10.198-10.342 21.11-21.41zm-39.458 9.506-8.672-8.795 8.672-8.795 8.673 8.795zm-28.545 1.561L74.2 51.335V30.651L95.31 52.06zm48.185 9.032c-7.861 8.001-12.191 12.42-19.64 12.42h-.11c-7.339 0-11.668-4.405-19.53-12.406l-4.067-4.14 10.197-10.342 11.091 11.249a3.37 3.37 0 0 0 2.419 1.017c.88 0 1.746-.334 2.419-1.017l11.091-11.249 10.198 10.343zm35.843-2.968c0 2.718-1.979 6.37-5.277 7.763-3.656 1.547-8.178-.153-12.713-4.753l-4.109-4.167 11.915-12.085a3.48 3.48 0 0 0 1.004-2.453V22.274s0-.112-.014-.168a2.2 2.2 0 0 0-.055-.515c-.028-.126-.069-.237-.11-.363-.028-.097-.055-.195-.083-.279-.054-.139-.137-.264-.206-.404-.041-.07-.068-.14-.11-.195a3.3 3.3 0 0 0-.948-.962c-.069-.055-.151-.083-.234-.125-.123-.07-.233-.14-.357-.195-.11-.042-.22-.07-.33-.112-.096-.028-.192-.07-.302-.097a3.7 3.7 0 0 0-1.347 0c-.11.028-.206.055-.302.097a1.5 1.5 0 0 0-.33.112 3 3 0 0 0-.358.195c-.068.042-.151.07-.233.125a3.3 3.3 0 0 0-.536.446l-26.938 27.32-8.672-8.796 26.731-27.11c4.151-4.195 9.662-5.422 14.775-3.275 5.717 2.397 9.126 8.223 9.126 15.569v44.924zm-152.54 33.97.11 16.922H13.14l-.096-10.872-4.687 5.017-4.686-5.017-.097 10.872H0l.11-16.922h2.804l5.442 5.827 5.443-5.827zm18.059 16.922h-3.835l-1.168-3.318h-4.947l-1.21 3.318h-3.78l6.048-16.922h2.845zm-6.295-6.928-1.168-3.317-1.195 3.317zm21.289-9.994v3.624h-5.044v13.311h-3.573V106.06h-5.044v-3.624zm2.543-.028h5.786c3.34 0 6.075 2.746 6.075 6.161a6.165 6.165 0 0 1-3.78 5.701l3.175 5.088h-4.15l-2.776-4.6h-.743v4.572h-3.573v-16.922zm3.574 8.698h2.212c1.375 0 2.502-1.143 2.502-2.537s-1.127-2.537-2.502-2.537h-2.212zm15.214 8.252h-3.574v-16.922h3.573zm16.148-14.12-7.394 10.51h7.16v3.623H74.532v-2.773l7.394-10.538h-7.394v-3.624h12.603zm8.988-2.802h12.397v3.624h-8.824v3.025h5.25v3.624h-5.25v3.025h8.824v3.624H96.123zm20.876 16.922h-5.621v-16.922h5.621c4.604 0 8.329 3.805 8.329 8.475 0 4.669-3.739 8.447-8.329 8.447m-2.061-3.61h2.047c2.639 0 4.756-2.175 4.756-4.823s-2.131-4.851-4.756-4.851h-2.047v9.687zm21.481-13.312h3.574v10.134c0 3.735-2.983 6.788-6.693 6.788-3.711 0-6.694-3.053-6.694-6.788v-10.134h3.574v10.134c0 1.756 1.402 3.178 3.133 3.178s3.134-1.422 3.134-3.178v-10.134zm19.09 10.412 2.598 2.635-1.306 1.324c-1.608 1.659-3.752 2.578-6.075 2.551-4.714 0-8.562-3.903-8.562-8.684s3.848-8.712 8.562-8.712c2.282 0 4.481.92 6.075 2.551l1.306 1.296-2.598 2.635-1.306-1.297c-.934-.975-2.171-1.449-3.477-1.463-2.68 0-4.906 2.244-4.906 4.99s2.213 4.976 4.906 4.976a4.8 4.8 0 0 0 3.477-1.464l1.306-1.324zm19.048 6.51h-3.834l-1.168-3.318h-4.948l-1.209 3.318h-3.78l6.047-16.922h2.845zm-6.308-6.928-1.168-3.317-1.196 3.317zm20.987.418 2.597 2.635-1.305 1.324c-1.608 1.659-3.752 2.578-6.075 2.551-4.714 0-8.562-3.903-8.562-8.684s3.848-8.712 8.562-8.712c2.281 0 4.48.92 6.075 2.551l1.305 1.296-2.597 2.635-1.306-1.297c-.935-.975-2.171-1.449-3.477-1.463-2.68 0-4.907 2.244-4.907 4.99s2.213 4.976 4.907 4.976a4.8 4.8 0 0 0 3.477-1.464l1.306-1.324zm19.048 6.51h-3.834l-1.169-3.318h-4.947l-1.21 3.318h-3.779l6.047-16.922h2.845zm-6.308-6.928-1.168-3.317-1.196 3.317zm24.354-1.756c0 4.781-3.876 8.684-8.617 8.684s-8.563-3.903-8.563-8.684 3.849-8.739 8.563-8.739 8.617 3.93 8.617 8.739m-3.67 0c0-2.774-2.212-5.018-4.947-5.018s-4.907 2.244-4.907 5.018 2.213 4.976 4.907 4.976 4.947-2.244 4.947-4.976m-18.677-10.259h-5.923v-2.272h5.923zm-16.245 23.054h-5.924v-2.272h5.924z"/></g><defs><clipPath id="a"><path fill="#fff" d="M0 0h226.33v123.453H0z"/></clipPath></defs></svg>
